X:100
T:Látom a szép eget...
M: 4/4
L: 1/4
K: F
gdfe | d2 d2 | 
gdfe | c2 c2 | 
BBfd | B2 B2 | 
cGBA | G2 G2| 

